img/discord.svg

<svg fill="none" height="32" viewBox="0 0 32 32" width="32" xmlns="http://www.w3.org/2000/svg"><path d="m25.1856 7.56176c-1.6894-.77519-3.5011-1.34632-5.3953-1.67342-.0345-.00632-.069.00946-.0868.04101-.233.41441-.491.95503-.6718 1.37996-2.0373-.30501-4.0642-.30501-6.0598 0-.1808-.43437-.4482-.96555-.6823-1.37996-.0178-.0305-.0522-.04628-.0867-.04101-1.8932.32606-3.70486.89718-5.39535 1.67342-.01463.00631-.02718.01683-.0355.0305-3.43637 5.13384-4.37773 10.14154-3.91593 15.08714.00209.0242.01567.0473.03448.062 2.26722 1.665 4.4634 2.6758 6.6188 3.3458.0345.0105.07105-.0021.093-.0305.5099-.6963.9644-1.4304 1.354-2.2025.023-.0452.0011-.0988-.0459-.1167-.7209-.2735-1.40737-.6069-2.06768-.9856-.05223-.0305-.05641-.1052-.00836-.1409.13895-.1042.27794-.2125.41062-.3219.02401-.02.05746-.0242.08568-.0116 4.33794 1.9806 9.03434 1.9806 13.32114 0 .0283-.0136.0617-.0094.0868.0106.1327.1094.2716.2187.4116.3229.0481.0357.0449.1104-.0073.1409-.6603.386-1.3467.7121-2.0687.9845-.047.0179-.0679.0726-.0449.1178.398.771.8525 1.5051 1.353 2.2014.0209.0295.0585.0421.093.0316 2.1658-.67 4.362-1.6808 6.6292-3.3458.0199-.0147.0324-.0368.0345-.061.5527-5.7176-.9257-10.6842-3.919-15.0871-.0074-.01471-.0199-.02523-.0345-.03154zm-13.5813 12.10624c-1.3061 0-2.38221-1.199-2.38221-2.6716 0-1.4725 1.05531-2.6715 2.38221-2.6715 1.3373 0 2.403 1.2095 2.3821 2.6715 0 1.4726-1.0553 2.6716-2.3821 2.6716zm8.8076 0c-1.306 0-2.3821-1.199-2.3821-2.6716 0-1.4725 1.0552-2.6715 2.3821-2.6715 1.3374 0 2.403 1.2095 2.3822 2.6715 0 1.4726-1.0448 2.6716-2.3822 2.6716z" fill="#fff"/></svg>

<svg width="32" height="32" viewBox="0 0 32 32" fill="none" xmlns="http://www.w3.org/2000/svg">
<path d="M25.1856 7.56176C23.4962 6.78657 21.6845 6.21544 19.7903 5.88834C19.7558 5.88202 19.7213 5.8978 19.7035 5.92935C19.4705 6.34376 19.2125 6.88438 19.0317 7.30931C16.9944 7.0043 14.9675 7.0043 12.9719 7.30931C12.7911 6.87494 12.5237 6.34376 12.2896 5.92935C12.2718 5.89885 12.2374 5.88307 12.2029 5.88834C10.3097 6.2144 8.49804 6.78552 6.80755 7.56176C6.79292 7.56807 6.78037 7.57859 6.77205 7.59226C3.33568 12.7261 2.39432 17.7338 2.85612 22.6794C2.85821 22.7036 2.87179 22.7267 2.8906 22.7414C5.15782 24.4064 7.354 25.4172 9.5094 26.0872C9.5439 26.0977 9.58045 26.0851 9.6024 26.0567C10.1123 25.3604 10.5668 24.6263 10.9564 23.8542C10.9794 23.809 10.9575 23.7554 10.9105 23.7375C10.1896 23.464 9.50313 23.1306 8.84282 22.7519C8.79059 22.7214 8.78641 22.6467 8.83446 22.611C8.97341 22.5068 9.1124 22.3985 9.24508 22.2891C9.26909 22.2691 9.30254 22.2649 9.33076 22.2775C13.6687 24.2581 18.3651 24.2581 22.6519 22.2775C22.6802 22.2639 22.7136 22.2681 22.7387 22.2881C22.8714 22.3975 23.0103 22.5068 23.1503 22.611C23.1984 22.6467 23.1952 22.7214 23.143 22.7519C22.4827 23.1379 21.7963 23.464 21.0743 23.7364C21.0273 23.7543 21.0064 23.809 21.0294 23.8542C21.4274 24.6252 21.8819 25.3593 22.3824 26.0556C22.4033 26.0851 22.4409 26.0977 22.4754 26.0872C24.6412 25.4172 26.8374 24.4064 29.1046 22.7414C29.1245 22.7267 29.137 22.7046 29.1391 22.6804C29.6918 16.9628 28.2134 11.9962 25.2201 7.5933C25.2127 7.57859 25.2002 7.56807 25.1856 7.56176ZM11.6043 19.668C10.2982 19.668 9.22209 18.469 9.22209 16.9964C9.22209 15.5239 10.2774 14.3249 11.6043 14.3249C12.9416 14.3249 14.0073 15.5344 13.9864 16.9964C13.9864 18.469 12.9311 19.668 11.6043 19.668ZM20.4119 19.668C19.1059 19.668 18.0298 18.469 18.0298 16.9964C18.0298 15.5239 19.085 14.3249 20.4119 14.3249C21.7493 14.3249 22.8149 15.5344 22.7941 16.9964C22.7941 18.469 21.7493 19.668 20.4119 19.668Z" fill="white"/>
</svg>
